X: 36
T: Pollonesse #36
M: 3/4
L: 1/16
K: D
Q:120
|f2f2 g2g2 f2f2| efge dcBc d2d2|F2A2 G2B2 F2A2| E2F2GFEF D2D2|
|f2f2 g2g2 f2f2| efge dcBc d2d2|F2A2 G2B2 F2A2| E2G2 G2F2 D4:|
|:A2a2 a2ef g2f2| d4f2eg f2a2| baec d2A2 F2D2| A2a2 a2ef g2f2|
d4f2eg f2a2| baec d2A2 F2D2| A2a2 a2ef g2f2| d4f2eg f2a2| baec d4 D4:|

